X: 476
T: Ba cong
%%abc-version 2.0
%%abcx-abcm2ps-target-version 5.9.1 (29 Sep 2008)
%%abc-creator hum2abc beta
%%abcx-conversion-date 2013/10/02 07:52:30
%%abc-edited-by Helmut Schaffrath
%%humdrum-veritas 697056253
%%humdrum-veritas-data 2515923974
%%continueall 1
%%barnumbers 0
L: 1/8
M: 2/4
K: F
d f d c [I:setbarnb 1]| 
G4 | 
d f d A | 
c2A G | 
F3D | 
c2d A | 
c A G D | 
F4 | 
F G A A | 
f dc2 | 
d A c c | 
d A G F | 
F DC2 | 
c2c F | 
G A G D | 
C4 | 
d A c c | 
d A G F | 
F DC2 | 
c2c F | 
G A G D | 
C4 |]  



